src/images/arrow-left.svg

<?xml version="1.0" encoding="UTF-8"?>
<svg width="62px" height="62px" viewBox="0 0 62 62" version="1.1" xmlns="http://www.w3.org/2000/svg" xmlns:xlink="http://www.w3.org/1999/xlink">
    <!-- Generator: Sketch 47.1 (45422) - http://www.bohemiancoding.com/sketch -->
    <title>arrow-right</title>
    <desc>Created with Sketch.</desc>
    <defs></defs>
    <g id="Page-1" stroke="none" stroke-width="1" fill="none" fill-rule="evenodd">
        <g id="arrow-right" transform="translate(31.000000, 31.000000) rotate(180.000000) translate(-31.000000, -31.000000) translate(2.000000, 2.000000)">
            <circle id="Oval-2" stroke="#1579C5" stroke-width="3" cx="29" cy="29" r="29"></circle>
            <path d="M25.788717,39.5153336 C25.1499545,40.1615555 24.1170155,40.1615555 23.478253,39.5153336 C22.8405823,38.8691118 22.8405823,37.8219011 23.478253,37.1756792 L31.0571429,29.5005523 L23.478253,21.8243208 C22.8405823,21.1780989 22.8405823,20.1308882 23.478253,19.4846664 C24.1170155,18.8384445 25.1499545,18.8384445 25.788717,19.4846664 L34.521747,28.3307251 C35.1594177,28.976947 35.1594177,30.0241577 34.521747,30.6703795 L25.788717,39.5153336 Z" id="Right-Arrow" fill="#1579C5" fill-rule="nonzero"></path>
        </g>
    </g>
</svg>

<svg width="62" height="62" xmlns="http://www.w3.org/2000/svg">
  <g transform="rotate(180 30 30)" fill="none" fill-rule="evenodd">
    <circle stroke="#1579C5" stroke-width="3" cx="29" cy="29" r="29"/>
    <path d="M25.789 39.515a1.62 1.62 0 0 1-2.31 0 1.67 1.67 0 0 1 0-2.34l7.578-7.674-7.579-7.677a1.67 1.67 0 0 1 0-2.34 1.62 1.62 0 0 1 2.31 0l8.734 8.847a1.67 1.67 0 0 1 0 2.34l-8.733 8.844z" fill="#1579C5" fill-rule="nonzero"/>
  </g>
</svg>
